X: 12
T: Famous Ballymote, The
Z: swisspiper
S: https://thesession.org/tunes/390#setting52747
R: reel
M: 4/4
L: 1/8
K: Dmix
FDAD FAAB|cABG EFGE|FDAD FAAB|cAGE ED DE|
FDAD FAAB|cABG EFGE|FDAD FAAB|cAGE ED D2||
FDFA d2 ed|cABG EFGE|FDFA d2 ed|cAGE EDD2|
FDFA d2 ed|cABG EFGE|FDFA d2 ed|cAGE EDD2||

%-------------------- TUNE SEPARATOR --------------------%

